img/Ico/Community.svg

<svg width="22" height="22" viewBox="0 0 22 22" fill="none" xmlns="http://www.w3.org/2000/svg">
<path fill-rule="evenodd" clip-rule="evenodd" d="M11 2.35001C8.48962 2.35001 6.45454 4.38508 6.45454 6.89546C6.45454 9.40582 8.48962 11.4409 11 11.4409C13.5104 11.4409 15.5455 9.40582 15.5455 6.89546C15.5455 4.38508 13.5104 2.35001 11 2.35001ZM8.27273 6.89546C8.27273 5.38923 9.49373 4.16819 11 4.16819C12.5063 4.16819 13.7273 5.38923 13.7273 6.89546C13.7273 8.40169 12.5063 9.62273 11 9.62273C9.49373 9.62273 8.27273 8.40169 8.27273 6.89546Z" fill="black"/>
<path d="M6.41646 3.90778C6.56028 4.38882 6.28691 4.89537 5.80587 5.03919C5.2089 5.21766 4.63637 5.91445 4.63637 6.89546C4.63637 7.87647 5.2089 8.57326 5.80587 8.75173C6.28691 8.89555 6.56028 9.4021 6.41646 9.8831C6.27264 10.3642 5.7661 10.6376 5.28505 10.4937C3.79084 10.047 2.81819 8.53873 2.81819 6.89546C2.81819 5.25219 3.79084 3.74392 5.28505 3.29719C5.7661 3.15337 6.27264 3.42674 6.41646 3.90778Z" fill="black"/>
<path d="M16.7149 3.29719C16.2339 3.15337 15.7274 3.42674 15.5836 3.90778C15.4397 4.38882 15.7131 4.89537 16.1942 5.03919C16.7911 5.21766 17.3637 5.91445 17.3637 6.89546C17.3637 7.87647 16.7911 8.57326 16.1942 8.75173C15.7131 8.89555 15.4397 9.4021 15.5836 9.8831C15.7274 10.3642 16.2339 10.6376 16.7149 10.4937C18.2092 10.047 19.1818 8.53873 19.1818 6.89546C19.1818 5.25219 18.2092 3.74392 16.7149 3.29719Z" fill="black"/>
<path fill-rule="evenodd" clip-rule="evenodd" d="M6.13129 13.1669C7.4504 12.5811 9.18745 12.35 11 12.35C12.8125 12.35 14.5496 12.5811 15.8687 13.1669C17.2135 13.764 18.2727 14.8175 18.2727 16.4409C18.2727 16.8652 18.1953 17.348 17.9066 17.8085C17.618 18.2687 17.1746 18.6172 16.602 18.8763C15.5028 19.3735 13.7419 19.6227 11 19.6227C8.2581 19.6227 6.49716 19.3735 5.39801 18.8763C4.82533 18.6172 4.38197 18.2687 4.09338 17.8085C3.80476 17.348 3.72727 16.8652 3.72727 16.4409C3.72727 14.8175 4.78651 13.764 6.13129 13.1669ZM6.86917 14.8285C5.91076 15.2542 5.54545 15.7916 5.54545 16.4409C5.54545 16.6442 5.5816 16.7593 5.63389 16.8427C5.68621 16.9262 5.81104 17.0675 6.14744 17.2197C6.86647 17.545 8.28735 17.8045 11 17.8045C13.7126 17.8045 15.1335 17.545 15.8525 17.2197C16.189 17.0675 16.3138 16.9262 16.3661 16.8427C16.4184 16.7593 16.4545 16.6442 16.4545 16.4409C16.4545 15.7916 16.0893 15.2542 15.1308 14.8285C14.1467 14.3916 12.702 14.1682 11 14.1682C9.298 14.1682 7.85324 14.3916 6.86917 14.8285Z" fill="black"/>
<path d="M17.4584 11.9459C17.6815 11.4962 18.2271 11.3125 18.6768 11.5356C20.0349 12.2096 21 13.3737 21 15.0773C21 15.5794 20.593 15.9864 20.0909 15.9864C19.5888 15.9864 19.1818 15.5794 19.1818 15.0773C19.1818 14.2098 18.75 13.6017 17.8686 13.1644C17.4189 12.9412 17.2352 12.3956 17.4584 11.9459Z" fill="black"/>
<path d="M4.54161 11.9459C4.76479 12.3956 4.58113 12.9412 4.13138 13.1644C3.25003 13.6017 2.81818 14.2098 2.81818 15.0773C2.81818 15.5794 2.41116 15.9864 1.90909 15.9864C1.40702 15.9864 1 15.5794 1 15.0773C1 13.3737 1.96507 12.2096 3.32316 11.5356C3.77291 11.3125 4.31843 11.4962 4.54161 11.9459Z" fill="black"/>
</svg>

<svg width="22" height="22" fill="none" xmlns="http://www.w3.org/2000/svg"><path fill-rule="evenodd" clip-rule="evenodd" d="M11 2.35a4.545 4.545 0 1 0 0 9.09 4.545 4.545 0 0 0 0-9.09zM8.273 6.895a2.727 2.727 0 1 1 5.454 0 2.727 2.727 0 0 1-5.454 0z" fill="#000"/><path d="M6.416 3.908a.91.91 0 0 1-.61 1.131c-.597.179-1.17.875-1.17 1.856 0 .981.573 1.678 1.17 1.857a.91.91 0 1 1-.521 1.742c-1.494-.447-2.467-1.955-2.467-3.599 0-1.643.973-3.151 2.467-3.598a.91.91 0 0 1 1.131.61zM16.715 3.297a.909.909 0 1 0-.52 1.742c.596.179 1.169.875 1.169 1.856 0 .981-.573 1.678-1.17 1.857a.909.909 0 1 0 .52 1.742c1.495-.447 2.468-1.955 2.468-3.599 0-1.643-.973-3.151-2.467-3.598z" fill="#000"/><path fill-rule="evenodd" clip-rule="evenodd" d="M6.131 13.167c1.32-.586 3.056-.817 4.869-.817 1.813 0 3.55.231 4.869.817 1.345.597 2.404 1.65 2.404 3.274 0 .424-.078.907-.366 1.367-.289.46-.732.81-1.305 1.068-1.1.497-2.86.747-5.602.747-2.742 0-4.503-.25-5.602-.747-.573-.259-1.016-.607-1.305-1.068-.288-.46-.366-.943-.366-1.367 0-1.623 1.06-2.677 2.404-3.274zm.738 1.662c-.958.425-1.324.963-1.324 1.612 0 .203.037.318.089.402.052.083.177.224.513.377.72.325 2.14.585 4.853.585 2.713 0 4.133-.26 4.852-.585.337-.152.462-.294.514-.377.052-.084.088-.199.088-.402 0-.65-.365-1.187-1.323-1.612-.984-.437-2.429-.66-4.131-.66-1.702 0-3.147.223-4.13.66z" fill="#000"/><path d="M17.458 11.946a.91.91 0 0 1 1.219-.41C20.035 12.21 21 13.374 21 15.077a.91.91 0 1 1-1.818 0c0-.867-.432-1.475-1.313-1.913a.91.91 0 0 1-.41-1.218zM4.542 11.946a.91.91 0 0 1-.41 1.218c-.882.438-1.314 1.046-1.314 1.913a.91.91 0 1 1-1.818 0c0-1.703.965-2.867 2.323-3.541a.91.91 0 0 1 1.219.41z" fill="#000"/></svg>
